assets/images/dron-icon.svg

<svg width="50" height="26" viewBox="0 0 50 26" fill="none" xmlns="http://www.w3.org/2000/svg">
<path fill-rule="evenodd" clip-rule="evenodd" d="M25.0483 7.57789C26.5674 7.57789 28.1144 7.70899 29.1609 7.99191C29.9818 8.21387 31.8614 8.95147 33.8275 9.75855C35.8138 10.5739 37.9443 11.4837 39.3002 12.0729C39.5371 12.1759 39.6907 12.412 39.6907 12.6734V15.9397C39.6907 16.3005 39.4022 16.593 39.0464 16.593H34.86L29.2234 20.4028C29.1175 20.4744 28.9932 20.5126 28.866 20.5126H20.7474C20.6156 20.5126 20.4869 20.4715 20.3788 20.3951L15.0036 16.593H10.9536C10.5978 16.593 10.3093 16.3005 10.3093 15.9397V12.6734C10.3093 12.4134 10.4613 12.1782 10.6963 12.0744C12.0315 11.4849 14.137 10.5747 16.1169 9.75888C18.0753 8.95194 19.9701 8.21211 20.8489 7.98935C21.953 7.70949 23.5267 7.57789 25.0483 7.57789Z" fill="#747474"/>
<path fill-rule="evenodd" clip-rule="evenodd" d="M39.0464 0C39.4022 0 39.6907 0.292477 39.6907 0.653266V12.9347C39.6907 13.2955 39.4022 13.5879 39.0464 13.5879C38.6905 13.5879 38.4021 13.2955 38.4021 12.9347V0.653266C38.4021 0.292477 38.6905 0 39.0464 0Z" fill="#747474"/>
<path fill-rule="evenodd" clip-rule="evenodd" d="M10.9536 0C10.5978 0 10.3093 0.292477 10.3093 0.653266V12.9347C10.3093 13.2955 10.5978 13.5879 10.9536 13.5879C11.3095 13.5879 11.5979 13.2955 11.5979 12.9347V0.653266C11.5979 0.292477 11.3095 0 10.9536 0Z" fill="#747474"/>
<path fill-rule="evenodd" clip-rule="evenodd" d="M50 3.00502C50 3.36581 49.7115 3.65829 49.3557 3.65829H28.9948C28.639 3.65829 28.3505 3.36581 28.3505 3.00502C28.3505 2.64424 28.639 2.35176 28.9948 2.35176H49.3557C49.7115 2.35176 50 2.64424 50 3.00502Z" fill="#747474"/>
<path fill-rule="evenodd" clip-rule="evenodd" d="M0 3.00502C0 3.36581 0.288476 3.65829 0.64433 3.65829H21.0052C21.361 3.65829 21.6495 3.36581 21.6495 3.00502C21.6495 2.64424 21.361 2.35176 21.0052 2.35176H0.64433C0.288476 2.35176 0 2.64424 0 3.00502Z" fill="#747474"/>
<path fill-rule="evenodd" clip-rule="evenodd" d="M16.6626 16.2599C16.844 16.5703 16.7429 16.971 16.4367 17.155C15.5092 17.7122 13.2732 20.2004 13.2732 25.3467C13.2732 25.7075 12.9847 26 12.6289 26C12.273 26 11.9845 25.7075 11.9845 25.3467C11.9845 19.8318 14.3877 16.8673 15.7798 16.031C16.0859 15.847 16.4811 15.9495 16.6626 16.2599Z" fill="#747474"/>
<path fill-rule="evenodd" clip-rule="evenodd" d="M33.0797 16.2599C32.8983 16.5703 32.9994 16.971 33.3055 17.155C34.2331 17.7122 36.4691 20.2004 36.4691 25.3467C36.4691 25.7075 36.7576 26 37.1134 26C37.4693 26 37.7577 25.7075 37.7577 25.3467C37.7577 19.8318 35.3545 16.8673 33.9625 16.031C33.6564 15.847 33.2611 15.9495 33.0797 16.2599Z" fill="#747474"/>
</svg>

<svg xmlns="http://www.w3.org/2000/svg" width="50" height="26" fill="none"><path fill="#747474" fill-rule="evenodd" d="M25.048 7.578c1.52 0 3.066.131 4.113.414.82.222 2.7.96 4.666 1.767 1.987.815 4.117 1.725 5.473 2.314.237.103.39.339.39.6v3.267c0 .36-.288.653-.644.653H34.86l-5.637 3.81a.638.638 0 0 1-.357.11h-8.119a.639.639 0 0 1-.368-.118l-5.375-3.802h-4.05a.649.649 0 0 1-.645-.653v-3.267c0-.26.152-.495.387-.599 1.335-.59 3.441-1.5 5.42-2.315 1.96-.807 3.854-1.547 4.733-1.77 1.104-.28 2.678-.411 4.2-.411Z" clip-rule="evenodd"/><path fill="#747474" fill-rule="evenodd" d="M39.046 0c.356 0 .645.292.645.653v12.282c0 .36-.289.653-.645.653a.649.649 0 0 1-.644-.653V.653c0-.36.288-.653.644-.653ZM10.954 0a.649.649 0 0 0-.645.653v12.282c0 .36.289.653.645.653a.649.649 0 0 0 .644-.653V.653A.649.649 0 0 0 10.954 0Z" clip-rule="evenodd"/><path fill="#747474" fill-rule="evenodd" d="M50 3.005c0 .36-.288.653-.644.653H28.995a.649.649 0 0 1-.645-.653c0-.36.289-.653.645-.653h20.36c.357 0 .645.292.645.653ZM0 3.005c0 .36.288.653.644.653h20.361a.649.649 0 0 0 .645-.653.649.649 0 0 0-.645-.653H.645A.649.649 0 0 0 0 3.005ZM16.663 16.26c.181.31.08.711-.226.895-.928.557-3.164 3.045-3.164 8.192 0 .36-.288.653-.644.653a.649.649 0 0 1-.644-.653c0-5.515 2.403-8.48 3.795-9.316a.64.64 0 0 1 .883.229ZM33.08 16.26a.658.658 0 0 0 .226.895c.927.557 3.163 3.045 3.163 8.192 0 .36.289.653.644.653a.649.649 0 0 0 .645-.653c0-5.515-2.404-8.48-3.796-9.316a.64.64 0 0 0-.882.229Z" clip-rule="evenodd"/></svg>
